X: 40
T:North Shore Breakdown
R:Reel
M:2/4
L:1/16
K:D
(3ABc |d2d2 dABc|d2d2 dABc|dcde fedc|B2G2 G2cd|
e2e2 eAcd|e2e2 eAcd|efed cABc|d2f2 d2:|
|:fg|abaf d2Ad|cBBB B2ef|gage c2Ac|BAAA A2fg|
abaf d2Ad|cBBB B2ef|gage cABc|d2f2 d2:|
